X: 1
T: Beryl Summers
C: Willie Lawrie
R: jig
Z: 2014 John Chambers <jc:trillian.mit.edu>
S: PDF image of set for The Ferry Louper, from George Meikle, 2012
M: 6/8
L: 1/8
K: D
A |\
"D"F2D D>EF | "G"G2B "A7"A>Bc | "D"d2D "Bm"A>FD | "Em"G2F "A7"E2A |\
"D"F2D D>EF | "G"G2B "A7"A>Bc | "D"d2D "Bm"A>FD | "A7"E>CA, "D"D2 :|
|: A |\
"D"d2e d>AF | "G"G2A B2d | "A7"c2d e>cA | "D"F2G A2A |\
"D"d2e d>AF | "G"G2A B2d | "D"d2D "Bm"A>FD | "A7"E>CA, "D"D2 :|
